X:1
T:Sento dentr'al cor
T:Sento dentr'al cor
T:Vincentio Ruffo
T:Source : Symphonia Angelica---Anversa---P.Phalesio & G.Bellero---1585. Editor : André Vierendeels (21/01/14).
C:Vincentio Ruffo
%%score [ 1 2 3 4 ]
L:1/8
Q:1/4=90
M:4/4
K:F
V:1 treble nm="Canto" snm="C"
V:2 treble nm="Alto" snm="A"
V:3 treble-8 nm="Tenor" snm="T"
V:4 bass nm="Basso" snm="B"
V:1
 c8- | c4 A4 | c4 B2 B2 | A4 A4 | z2 f4 d2- | d2 f2 e2 d2 | cd ef g2 c2 | d4 c4 | z2 c4 c2 | %9
w: Sen-|* to|den- tr'al cor|mi- o,|sen- to|_ den- tr'al cor|mi- * * * * *|* o,|u- na|
 f4 d4- | d2 e4 c2- | c2 A2 A2 G2 | AB cd ef g2 | e2 f4 ed | c2 d2 A4 | A8 | z2 A2 c2 c2 | %17
w: pia- ga|_ cru- del|_ che mi tor-|men- * * * * * *|ta, che _ _|mi tor- men-|ta,|et u- na|
 B2 B2 A4 | A4 z2 d2 | f4 e4 | d4 c4 | B8 | A8 | z2 A2 c4- | c2 B2 c2 d2 | e2 c2 d3 c | B2 A2 G4 | %27
w: fiam- ma len-|ta, et|u- na|fiam- ma|len-|ta,|che dol-|* ce- men- te|mi con- su- *|* m'et ar-|
 A4 c4- | c4 c4 | d4 f4- | f2 e4 d2- | d2 c4 d2- |"^-natural" d2 c4 B2 | c4 z2 c2- | c2 c4 B2 | %35
w: de, ahi|_ for-|tu- na|_ cru- de-|* l'o ca-|* so ri-|o, sco-|* prir la|
 c2 c2 B4 | G4 z2 c2- | c2 c4 B2 | c2 c2 B4 | G4 z2 G2 | A4 F4 | G2 A2 B4 | A4 z2 G2 | A4 F4 | %44
w: non mi ca-|le, e|_ la- men-|tar non va-|le, per-|che la|don- na mi-|a, bel-|l'e cru-|
 G2 A2 B4 | A2 c2 d2 f2- | f2 e4 d2 | z2 c2 d2 B2- | B2 c3 B A2 | G4 A4 | z2 G2 c3 B | A2 B4 A2- | %52
w: del non pi-|a, di me fa|_ strac- cio,|di me fa|_ strac- * *|* cio,|di me _|_ fa strac-|
 A2 G2 A2 F2 | c3 B A2 A2 | d8 | c8 | z8 | z8 | z8 | z8 | z4 c4 | c6 c2 | d2 d2 e2 c2- | c2 f4 e2 | %64
w: * * cio, et|ha giu- ra- t'an-|co-|ra,|||||che|vuol che|mil- le vol- t'il|_ gior- no|
 d2 c2 B4 | A8 | G8- | G8 |] %68
w: mo- * *|ra.|_||
V:2
 A8 | G4 F4 | E4 G4 | F4 E4 | z2 A2 B4- | B2 c4 A2- | A2 A2 B2 A2 | B3 A G4 | A4 z2 A2- | %9
w: Sen-|to den-|tr'al cor|mi- o,|sen- to|_ den- tr'al|_ cor mi- *||o, u-|
 A2 A2 B4 | B2 G4 A2- | A2 F4 ED | E2 A2 c2 B2 | A4 F4 | z2 D2 F4 | C4 F4 | E4 z2 E2 | %17
w: * na pia-|ga cru- de-||le che mi tor-|men- ta,|che mi|tor- men-|ta, et|
 G2 G2 C2 D2 | CD EF GA BG | A4 G2 G2 | B2 B2 A4 | G2 F3 E/D/ E2 | F4 z2 F2 | A6 G2 | A2 F2 G4- | %25
w: u- na fiam- ma|len- * * * * * * *|* ta, et|u- na fiam-|ma len- * * *|ta, che|dol- ce-|men- te mi|
 G2 A2 F2 D2- | D2 F3 E/D/ E2 | F4 A4- | A4 G4 | B4 c4 | c4 B4 | A4 A4 | G4 G4 | E4 z2 G2- | %34
w: _ con- su- m'et|_ ar- * * *|de, ahi|_ for-|tu- na|cru- de-|l'o ca-|so ri-|o, sco-|
 G2 A4 G2 | G2 A2 G4 | E4 z2 G2- | G2 A4 G2 | G2 A2 G4 | E4 z2 E2 | F3 G A2 B2 | G2 F4 E2 | %42
w: * prir la|non mi ca-|le, e|_ la- men-|tar non va-|le, per-|che _ _ la|don- na mi-|
 F4 z2 E2 | F3 G A2 B2 | G2 F4 E2 | F4 z2 F2 | A2 G2 B4 | A4 z2 F2 | G2 E4 F2- | FE/D/ E2 F2 C2- | %50
w: a, bel-|l'e _ _ cru-|del non pi-|a, di|me fa strac-|cio, di|me fa strac-|* * * * cio, di|
 CD EF G4 | F8 | D3 E F4 | E4 F4 | z2 F2 B3 A | G2 G2 A4 | F2 D2 F4- | F2 E2 F2 D2 | C6 B,2 | %59
w: _ _ _ _ me|fa|strac- * *|* cio|et ha giu-|ra- t'an- co-|ra, che vuol|_ che mil- le|vol- t'il|
 C2 C2 F4 | E4 E4 | F4 C2 E2 | F2 G4 G2 | A4 F4- | F4 G4 | F8 | D8 | E8 |] %68
w: gior- no mo-|ra, che|vuol che mil-|le vol- t'il|gior- no|_ mo-|||ra.|
V:3
 f8 | e4 c4 | c4 d4 | d4 c4 | z2 c2 d2 f2 | g2 a2 g2 f2 | e3 c de f2- | f2 ed e4 | f8 | z2 f4 f2 | %10
w: Sen-|to den-|tr'al cor|mi- o,|sen- to den-|tr'al cor mi- *|||o,|u- na|
 g4 e2 e2 | f4 d4 | c6 d2- |"^-natural" dc/B/ c2 d4 | e2 f2 f2 c2 | f2 e2 d4 | c3 d e4 | %17
w: pia- ga cru-|del che|mi tor-|* * * men- *|ta, che mi tor-|men- * *|ta, _ _|
 z2 d2 f2 f2 | e2 c2 d4- | d2 c2 z2 c2 | f6 f2 | d2 d2 B3 c | d2 c2 z2 c2 | f6 e2 | f2 d2 c2 B2 | %25
w: et u- na|fiam- ma len-|* ta, et|u- na|fiam- ma len- *|* ta, che|dol- ce-|men- te mi con-|
 c2 F2 B3 A | G2 F2 c4 | F4 f4- | f4 e4 | f4 a4 | g4 g4 | e4 f4- | f2 e2 d4 | c4 z2 e2- | %34
w: su- m'et ar- *||de, ahi|_ for-|tu- na|cru- de-|l'o ca-|* so ri-|o, sco-|
 e2 f4 d2 | e2 f2 d4 | c4 z2 e2- | e2 f4 d2 | e2 f2 d4 | c4 z2 c2 | c4 c2 d2- | d2 c2 B3 c | %42
w: * prir la|non mi ca-|le, e|_ la- men-|tar non va-|le, per-|che la don-|* na mi- *|
 d2 c2 z2 c2 | c4 c2 d2- | d2 c2 B3 c | d2 c3 B/A/ B2 | c4 g4 | e2 f4 d2- | d2 c2 z2 c2 | c6 f2 | %50
w: * a, bel-|l'e cru- del|_ non pi- *||a, di|me fa strac-|* cio, di|me fa|
 e6 c2 | z2 d2 c2 A2 | B4 c4- | c4 z2 c2 | f3 e d2 d2 | e4 c2 c2 | d6 c2 | d2 B2 A4- | %58
w: strac- cio,|di me fa|strac- cio,|_ et|ha giu- ra- t'an-|co- ra, che|vuol che|mil- le vol-|
 A2 G2 A2 G2- | G2 c3 B/A/ B2 | c4 G4 | A6 G2 | A2 B2 c4 | c4 d4- | d4 d4- | d4 c2 d2- | %66
w: t'il gior- no mo-||ra, che|vuol che|mil- le vol-|t'il gior-|* no|_ mo- *|
"^-natural" dc c4 B2 | c8 |] %68
w: |ra.|
V:4
 F,8 | C4 F,4 | A,4 G,4 | D,E, F,G, A,4 | z2 F,2 B,3 A, | G,2 F,2 C2 D2 | A,4 G,2 F,2 | B,4 C4 | %8
w: Sen-|to den-|tr'al cor|mi- * * * o,|sen- to _|_ den- tr'al cor|mi- o, al|cor mi-|
 F,4 z2 F,2- | F,2 F,2 B,4 | G,4 C4 | F,4 B,4 | A,6 G,2 | A,4 B,4 | A,2 D,4 F,2- | F,2 C,2 D,4 | %16
w: o, u-|* na pia-|ga cru-|del che|mi tor-|men- *|ta, che mi|_ tor- men-|
 A,4 A,4 | G,2 G,2 F,2 D,2 | A,4 G,4 | z2 F,2 C2 C2 | B,4 F,4 | B,3 A, G,4 | F,8 | z8 | z8 | z8 | %26
w: ta, et|u- na fiam- ma|len- ta,|et u- na|fiam- ma|len- * *|ta,||||
 z8 | z4 F,4- | F,4 C4 | B,4 F,4 | C4 G,4 | A,4 F,4 | G,4 G,4 | C,4 z2 C2- | C2 F,4 G,2 | %35
w: |ahi|_ for-|tu- na|cru- de-|l'o ca-|so ri-|o, sco-|* prir la|
 C,2 F,2 G,4 | C,4 z2 C2- | C2 F,4 G,2 | C,2 F,2 G,4 | C,4 z2 C,2 | F,4 F,2 B,2- | B,2 A,2 G,4 | %42
w: non mi ca-|le, e|_ la- men-|tar non va-|le, per-|che la don-|* na mi-|
 F,4 z2 C,2 | F,4 F,2 B,2- | B,2 A,2 G,4 | F,3 E, D,4 | C,4 z2 G,2 | A,4 B,4 | G,2 A,4 F,2 | %49
w: a, bel-|l'e cru- del|_ non pi-||a, di|me fa|strac- cio, di|
 C,4 F,3 G, | A,B, C4 C,2 | D,2 B,,2 F,4 | G,4 F,4 | z2 C,2 F,3 E, | D,2 D,2 G,4 | C,4 F,4 | %56
w: me fa, _|_ _ _ di|me fa strac-|* cio,|et ha giu-|ra- t'an- co-|ra, che|
 B,6 A,2 | B,2 G,2 F,4- | F,2 E,2 F,2 G,2 | E,2 F,2 D,4 | C,4 C,4 | F,6 E,2 | D,2 G,2 C,4 | %63
w: vuol che|mil- le vol-|* t'il gior- no|mo- * *|ra, che|vuol che|mil- le vol-|
 F,4 B,4- | B,2 A,2 G,4 | D,4 F,4 | G,8 | C,8 |] %68
w: t'il gior|_ _ _|no mo-||ra.|

